X: 572
T: Foggy Mountain Breakdown
C:Flatt and Scruggs
B: jims roots
M:4/4
L:1/8
Q: 1/4=100
K:G
V:1 
%Q:120
%R:Breakdown
"G"{[^cf]}-[d2g2] [dg][d2g2][dg][dg][dg] | {[^cf]}-[d2g2][ dg] [d2g2][dg][dg][dg] | {[^cf]}[d2g2] [dg][dg]e2 _B-=B | [G2B2][GB][GB][G2B2][GB][GB]|
"Em"{[DA]}[E2B2][EB][EB] [GB][EB][EB][EB] | [GB][EB][G2B2][E2B2][EB][EB] | "G"GFGA BAGF | G2GGG2GG||
"Em"{[DA]}[E2B2][EB][EB] [GB][EB][EB][EB] | [GB][EB][G2B2][E2B2][EB][EB] | "G"GFGA Bdef | [g2B2][gB][gB][g2B2]gg |
"D"fafe dABd | efed BAGA | "G"Bdeg "D"edBA | "G"G2 B,D [G4B,4]||
% abcbook-tune_id 6298c25d85e801b0687bd778


% abcbook-boost 0
% abcbook-tablature 
% abcbook-transpose 
% abcbook-lastupdated 1654178398046
% abcbook-soundfonts 
% abcbook-repeats 1


